svgs/bluewallet.svg

<svg xmlns="http://www.w3.org/2000/svg" viewBox="0 0 192 192"><path d="M44.114 175.374c-4.398-1.407-7.821-4.986-8.991-9.403-.283-1.067-.351-12.979-.284-49.357l.089-47.952.968-2.03c1.272-2.669 3.389-4.965 5.727-6.211l1.891-1.008-.579-1.154c-2.571-5.121-3.553-12.932-2.356-18.74 2.47-11.989 12.151-21.237 24.277-23.192 3.147-.507 8.625-.218 11.932.631 6.127 1.573 12.049 5.553 15.981 10.741 1.992 2.629 4.319 7.602 5.136 10.976.697 2.88.985 9.481.479 10.995-.204.611.093.518 2.676-.84 1.598-.84 4.171-1.912 5.717-2.382 2.556-.776 3.266-.854 7.81-.859 4.206-.004 5.394.105 7.497.686 3.245.897 7.59 3.028 10.178 4.992 2.112 1.604 5.256 4.861 6.16 6.384.478.805.647.859 2.707.869 7.668.036 12.348 2.554 14.948 8.042l.995 2.1.089 47.952c.067 36.378-.001 48.29-.284 49.357-1.184 4.468-4.619 8.026-9.094 9.418-1.775.553-4.062.578-51.889.562-47.192-.016-50.131-.049-51.78-.577Zm14.4-14.933v-10.216l-3.905-3.947-3.905-3.946V127.56l-1.172-.602c-2.46-1.266-4.12-3.99-4.132-6.783-.013-3.07 1.532-5.742 4.161-7.195 1.345-.744 1.973-.891 3.798-.887 2.506.006 3.886.552 5.601 2.218 1.547 1.502 2.109 2.734 2.293 5.021.262 3.264-1.307 6.222-4.038 7.615l-1.201.613v12.63l3.983 3.992 3.983 3.991.09 11.242.089 11.242h7.787v-32.362l-1.634-1.078c-.997-.659-2.002-1.678-2.577-2.616-.834-1.359-.942-1.813-.936-3.905.008-2.745.668-4.317 2.478-5.906 2.247-1.973 4.571-2.599 7.247-1.951 5.993 1.449 8.171 9.056 3.837 13.4-.57.57-1.431 1.242-1.914 1.492l-.878.454v32.472h7.81v-7.003c0-3.852.09-7.238.199-7.524.189-.491 10.421-8.379 11.885-9.162.39-.208 2.02-.365 3.797-.365h3.115l.795-1.357c2.528-4.314 8.227-5.262 11.948-1.986 5.688 5.007 2.42 13.964-5.095 13.964-1.351 0-2.411-.206-3.366-.655-1.49-.7-3.44-2.638-3.916-3.891-.273-.718-.435-.764-2.647-.764h-2.355l-4.511 3.358-4.512 3.358-.013 6.021-.014 6.022 27.569-.086c27.214-.085 27.586-.095 28.973-.739.774-.359 1.925-1.23 2.56-1.934 2.061-2.289 2.126-2.846 2.126-18.244v-13.688l-23.663-.003c-19.395-.003-23.924-.083-25.106-.441-6.652-2.019-10.663-8.204-9.634-14.854.775-5.012 4.233-9.045 9.208-10.74 1.352-.46 4.028-.515 25.353-.515h23.842V85.333l-.944.672c-.519.369-1.749.976-2.733 1.348l-1.79.677H45.549l-1.789-.677c-.984-.372-2.214-.979-2.734-1.348l-.943-.672v39.012c0 43.41-.112 41.087 2.102 43.539 2.152 2.381 3.404 2.7 10.784 2.741l5.545.032Zm55.15-9.294c.971-.972 1.04-2.709.142-3.607-1.02-1.02-2.658-.934-3.671.191-2.113 2.349 1.296 5.649 3.529 3.416ZM76.49 132.404c2.279-2.28-1.158-5.76-3.508-3.553-.954.896-.975 2.606-.044 3.596.93.991 2.537.971 3.552-.043Zm75.427-9.699v-7.966h-23.233c-25.235 0-24.629-.039-26.955 1.735-3.981 3.037-3.783 9.82.369 12.61 2.273 1.528 2.534 1.544 26.937 1.566l22.882.021Zm-97.086-.582c.889-.675 1.266-2.056.842-3.079-.426-1.029-1.146-1.493-2.314-1.493-1.168 0-1.888.464-2.314 1.493a2.502 2.502 0 0 0 2.314 3.485c.516 0 1.178-.182 1.472-.406Zm31.385-40.262c-.722-3.027-.906-5.022-.769-8.335l.152-3.708-1.471.905c-2.093 1.288-5.498 2.637-8.336 3.303-3.547.831-10.283.749-13.686-.167-4.924-1.326-10.029-4.279-13.506-7.811-1.229-1.249-1.922-1.727-2.389-1.648-1.867.314-4.243 2.261-5.39 4.419-.466.875-.582 1.778-.582 4.529 0 3.938.402 5.109 2.426 7.073 2.21 2.145 1.596 2.091 23.77 2.118l19.949.025-.168-.703Zm11.195.156c-.119-.301-.504-1.67-.855-3.043-2.396-9.37 3.394-19.372 12.817-22.141 8.65-2.542 18.039 1.568 21.92 9.595.677 1.401 1.396 3.316 1.597 4.255.545 2.55.208 8.191-.612 10.241l-.657 1.64h5.59l.509-1.64c.279-.902.584-3.261.676-5.241.207-4.433-.455-7.483-2.541-11.706-7.005-14.181-25.885-17.547-37.497-6.684-6.337 5.928-8.968 14.823-6.862 23.204l.519 2.067h2.807c2.548 0 2.787-.051 2.589-.547Zm29.105-1.814c2.328-4.902 1.51-10.411-2.132-14.363-2.804-3.041-6.16-4.361-10.547-4.147-6.36.309-11.04 4.538-12.247 11.063-.41 2.219.133 5.396 1.344 7.854l.961 1.954h21.5Zm20.18 1.867c1.693-.577 3.583-2.296 4.452-4.049.928-1.873.889-7.594-.065-9.375-1.514-2.828-3.784-4.256-7.084-4.457-2.082-.127-2.13-.113-1.795.514.19.355.648 1.883 1.019 3.396.805 3.286.896 9.397.186 12.512l-.445 1.953h1.141c.627 0 1.793-.223 2.591-.494ZM74.617 68.653c2.955-.658 5.231-1.616 7.703-3.242 13.034-8.573 14.627-26.696 3.286-37.391-3.942-3.718-8.5-5.819-13.721-6.324-17.556-1.697-30.73 14.908-25.058 31.585 1.988 5.847 6.29 10.653 12.171 13.6 4.569 2.289 10.352 2.945 15.619 1.772Zm-9.231-4.987c-6.782-1.531-12.635-7.289-14.212-13.98-.968-4.103-.431-8.699 1.478-12.651 1.469-3.042 5.242-6.795 8.361-8.317 4.831-2.357 9.735-2.637 14.687-.837 7.495 2.725 12.268 9.538 12.268 17.509 0 8.444-5.173 15.332-13.523 18.005-2.114.676-6.662.813-9.059.271Zm9.773-6.498c9.791-4.839 9.8-18.713.015-23.549-2.045-1.011-2.7-1.177-5.097-1.291-2.244-.108-3.13-.005-4.818.557-3.524 1.172-6.347 3.691-7.873 7.026-3.298 7.203.48 15.63 8.139 18.154.785.259 2.408.39 4.27.344 2.763-.068 3.19-.167 5.364-1.241Zm28.651-23.805v-6.717h5.623v13.433h-5.623Zm10.76 6.317c-.084-.22-.115-3.207-.068-6.638l.085-6.239 2.733-.091 2.734-.09v13.457h-2.665c-1.876 0-2.711-.118-2.819-.399Zm-10.76-20.999v-2.656h5.623v5.311h-5.623Zm10.686.078.091-2.578 2.733-.09 2.734-.09v5.335h-5.649Z"/></svg>

<svg
    xmlns="http://www.w3.org/2000/svg"
    viewBox="0 0 192 192"
    id="vector">
    <path
        id="path"
        d="M 44.114 175.374 C 39.716 173.967 36.293 170.388 35.123 165.971 C 34.84 164.904 34.772 152.992 34.839 116.614 L 34.928 68.662 L 35.896 66.632 C 37.168 63.963 39.285 61.667 41.623 60.421 L 43.514 59.413 L 42.935 58.259 C 40.364 53.138 39.382 45.327 40.579 39.519 C 43.049 27.53 52.73 18.282 64.856 16.327 C 68.003 15.82 73.481 16.109 76.788 16.958 C 82.915 18.531 88.837 22.511 92.769 27.699 C 94.761 30.328 97.088 35.301 97.905 38.675 C 98.602 41.555 98.89 48.156 98.384 49.67 C 98.18 50.281 98.477 50.188 101.06 48.83 C 102.658 47.99 105.231 46.918 106.777 46.448 C 109.333 45.672 110.043 45.594 114.587 45.589 C 118.793 45.585 119.981 45.694 122.084 46.275 C 125.329 47.172 129.674 49.303 132.262 51.267 C 134.374 52.871 137.518 56.128 138.422 57.651 C 138.9 58.456 139.069 58.51 141.129 58.52 C 148.797 58.556 153.477 61.074 156.077 66.562 L 157.072 68.662 L 157.161 116.614 C 157.228 152.992 157.16 164.904 156.877 165.971 C 155.693 170.439 152.258 173.997 147.783 175.389 C 146.008 175.942 143.721 175.967 95.894 175.951 C 48.702 175.935 45.763 175.902 44.114 175.374 Z M 58.514 160.441 L 58.514 150.225 L 54.609 146.278 L 50.704 142.332 L 50.704 127.56 L 49.532 126.958 C 47.072 125.692 45.412 122.968 45.4 120.175 C 45.387 117.105 46.932 114.433 49.561 112.98 C 50.906 112.236 51.534 112.089 53.359 112.093 C 55.865 112.099 57.245 112.645 58.96 114.311 C 60.507 115.813 61.069 117.045 61.253 119.332 C 61.515 122.596 59.946 125.554 57.215 126.947 L 56.014 127.56 L 56.014 140.19 L 59.997 144.182 L 63.98 148.173 L 64.07 159.415 L 64.159 170.657 L 71.946 170.657 L 71.946 138.295 L 70.312 137.217 C 69.315 136.558 68.31 135.539 67.735 134.601 C 66.901 133.242 66.793 132.788 66.799 130.696 C 66.807 127.951 67.467 126.379 69.277 124.79 C 71.524 122.817 73.848 122.191 76.524 122.839 C 82.517 124.288 84.695 131.895 80.361 136.239 C 79.791 136.809 78.93 137.481 78.447 137.731 L 77.569 138.185 L 77.569 170.657 L 85.379 170.657 L 85.379 163.654 C 85.379 159.802 85.469 156.416 85.578 156.13 C 85.767 155.639 95.999 147.751 97.463 146.968 C 97.853 146.76 99.483 146.603 101.26 146.603 L 104.375 146.603 L 105.17 145.246 C 107.698 140.932 113.397 139.984 117.118 143.26 C 122.806 148.267 119.538 157.224 112.023 157.224 C 110.672 157.224 109.612 157.018 108.657 156.569 C 107.167 155.869 105.217 153.931 104.741 152.678 C 104.468 151.96 104.306 151.914 102.094 151.914 L 99.739 151.914 L 95.228 155.272 L 90.716 158.63 L 90.703 164.651 L 90.689 170.673 L 118.258 170.587 C 145.472 170.502 145.844 170.492 147.231 169.848 C 148.005 169.489 149.156 168.618 149.791 167.914 C 151.852 165.625 151.917 165.068 151.917 149.67 L 151.917 135.982 L 128.254 135.979 C 108.859 135.976 104.33 135.896 103.148 135.538 C 96.496 133.519 92.485 127.334 93.514 120.684 C 94.289 115.672 97.747 111.639 102.722 109.944 C 104.074 109.484 106.75 109.429 128.075 109.429 L 151.917 109.429 L 151.917 85.333 L 150.973 86.005 C 150.454 86.374 149.224 86.981 148.24 87.353 L 146.45 88.03 L 45.549 88.03 L 43.76 87.353 C 42.776 86.981 41.546 86.374 41.026 86.005 L 40.083 85.333 L 40.083 124.345 C 40.083 167.755 39.971 165.432 42.185 167.884 C 44.337 170.265 45.589 170.584 52.969 170.625 L 58.514 170.657 Z M 113.664 151.147 C 114.635 150.175 114.704 148.438 113.806 147.54 C 112.786 146.52 111.148 146.606 110.135 147.731 C 108.022 150.08 111.431 153.38 113.664 151.147 Z M 76.49 132.404 C 78.769 130.124 75.332 126.644 72.982 128.851 C 72.028 129.747 72.007 131.457 72.938 132.447 C 73.868 133.438 75.475 133.418 76.49 132.404 Z M 151.917 122.705 L 151.917 114.739 L 128.684 114.739 C 103.449 114.739 104.055 114.7 101.729 116.474 C 97.748 119.511 97.946 126.294 102.098 129.084 C 104.371 130.612 104.632 130.628 129.035 130.65 L 151.917 130.671 Z M 54.831 122.123 C 55.72 121.448 56.097 120.067 55.673 119.044 C 55.247 118.015 54.527 117.551 53.359 117.551 C 52.191 117.551 51.471 118.015 51.045 119.044 C 50.351 120.72 51.552 122.529 53.359 122.529 C 53.875 122.529 54.537 122.347 54.831 122.123 Z M 86.216 81.861 C 85.494 78.834 85.31 76.839 85.447 73.526 L 85.599 69.818 L 84.128 70.723 C 82.035 72.011 78.63 73.36 75.792 74.026 C 72.245 74.857 65.509 74.775 62.106 73.859 C 57.182 72.533 52.077 69.58 48.6 66.048 C 47.371 64.799 46.678 64.321 46.211 64.4 C 44.344 64.714 41.968 66.661 40.821 68.819 C 40.355 69.694 40.239 70.597 40.239 73.348 C 40.239 77.286 40.641 78.457 42.665 80.421 C 44.875 82.566 44.261 82.512 66.435 82.539 L 86.384 82.564 L 86.216 81.861 Z M 97.411 82.017 C 97.292 81.716 96.907 80.347 96.556 78.974 C 94.16 69.604 99.95 59.602 109.373 56.833 C 118.023 54.291 127.412 58.401 131.293 66.428 C 131.97 67.829 132.689 69.744 132.89 70.683 C 133.435 73.233 133.098 78.874 132.278 80.924 L 131.621 82.564 L 137.211 82.564 L 137.72 80.924 C 137.999 80.022 138.304 77.663 138.396 75.683 C 138.603 71.25 137.941 68.2 135.855 63.977 C 128.85 49.796 109.97 46.43 98.358 57.293 C 92.021 63.221 89.39 72.116 91.496 80.497 L 92.015 82.564 L 94.822 82.564 C 97.37 82.564 97.609 82.513 97.411 82.017 Z M 126.516 80.203 C 128.844 75.301 128.026 69.792 124.384 65.84 C 121.58 62.799 118.224 61.479 113.837 61.693 C 107.477 62.002 102.797 66.231 101.59 72.756 C 101.18 74.975 101.723 78.152 102.934 80.61 L 103.895 82.564 L 125.395 82.564 Z M 146.696 82.07 C 148.389 81.493 150.279 79.774 151.148 78.021 C 152.076 76.148 152.037 70.427 151.083 68.646 C 149.569 65.818 147.299 64.39 143.999 64.189 C 141.917 64.062 141.869 64.076 142.204 64.703 C 142.394 65.058 142.852 66.586 143.223 68.099 C 144.028 71.385 144.119 77.496 143.409 80.611 L 142.964 82.564 L 144.105 82.564 C 144.732 82.564 145.898 82.341 146.696 82.07 Z M 74.617 68.653 C 77.572 67.995 79.848 67.037 82.32 65.411 C 95.354 56.838 96.947 38.715 85.606 28.02 C 81.664 24.302 77.106 22.201 71.885 21.696 C 54.329 19.999 41.155 36.604 46.827 53.281 C 48.815 59.128 53.117 63.934 58.998 66.881 C 63.567 69.17 69.35 69.826 74.617 68.653 Z M 65.386 63.666 C 58.604 62.135 52.751 56.377 51.174 49.686 C 50.206 45.583 50.743 40.987 52.652 37.035 C 54.121 33.993 57.894 30.24 61.013 28.718 C 65.844 26.361 70.748 26.081 75.7 27.881 C 83.195 30.606 87.968 37.419 87.968 45.39 C 87.968 53.834 82.795 60.722 74.445 63.395 C 72.331 64.071 67.783 64.208 65.386 63.666 Z M 75.159 57.168 C 84.95 52.329 84.959 38.455 75.174 33.619 C 73.129 32.608 72.474 32.442 70.077 32.328 C 67.833 32.22 66.947 32.323 65.259 32.885 C 61.735 34.057 58.912 36.576 57.386 39.911 C 54.088 47.114 57.866 55.541 65.525 58.065 C 66.31 58.324 67.933 58.455 69.795 58.409 C 72.558 58.341 72.985 58.242 75.159 57.168 Z M 103.81 33.363 L 103.81 26.646 L 109.433 26.646 L 109.433 40.079 L 103.81 40.079 Z M 114.57 39.68 C 114.486 39.46 114.455 36.473 114.502 33.042 L 114.587 26.803 L 117.32 26.712 L 120.054 26.622 L 120.054 40.079 L 117.389 40.079 C 115.513 40.079 114.678 39.961 114.57 39.68 Z M 103.81 18.681 L 103.81 16.025 L 109.433 16.025 L 109.433 21.336 L 103.81 21.336 Z M 114.496 18.759 L 114.587 16.181 L 117.32 16.091 L 120.054 16.001 L 120.054 21.336 L 114.405 21.336 Z"
        fill="#000000"
        stroke-width="12"/>
</svg>
